X:1
T:Title
%%score { 1 | ( 2 3 ) }
L:1/8
Q:1/4=100
M:6/8
K:Bb
V:1 treble nm="Grand Piano"
V:2 bass 
V:3 bass 
V:1
 [DB]3 ABc | [DB]3 [DF] [DF]2 | [EG]3 [=Ec]2 [GB] | [FA]6 | [DB]3 ABc | [DB]3 [DF]2 [DF] | %6
w: T.~E.~Perkins * * *||||||
 G3 A2 A |[M:5/8] [DB]-[DB]- [DB]3 |[M:1/8] [DB] |[M:3/4] c3 c de | [Fd]3 [DB]2 [FA] | %11
w: |||||
 [EG]3 [=EG] [FA][GB] | [Ac]4- [Ac]F | c3 c de | [Fd]3 [CFc]2 [DGB] | [CFA]3 [CGB]2 [B,=EG] | %16
w: |||||
 [A,F]6 | [B,DB]3 [CA] [DB][Ec] | [DB]3 [DF]2 [DF] | [EG]3 [=Ec]2 [GB] | [FA]4- [FA][EF] | %21
w: |||||
 [DB]3 [DB] [Ec][Fd] | [Ge]3 [Fd]2 c | B3 c2 A | [DB]6 |] %25
w: ||||
V:2
 [B,,F,]3 [F,C][F,D][F,A,E] | [B,,B,]3 [B,,B,] [B,,B,]2 | [E,B,]3 [C,C]2 [=E,C] | [F,C]6 | %4
 [B,,F,]3 [F,C][F,D][F,A,E] | [B,,B,]3 [B,,B,]2 [B,,B,] | [E,B,E]3 [F,E]2 [F,E] | %7
[M:5/8] [B,,F,]-[B,,F,]- [B,,F,]3 |[M:1/8] [B,,B,] |[M:3/4] [F,A,F]3 [F,F]- [F,B,F][F,CF] | %10
 [B,,B,]3 [B,,B,]2 [D,B,] | [E,B,]3 [C,C]2 [C,C] | [F,C]4- [F,C][F,E] | %13
 [F,A,F]3 [F,F]- [F,B,F][F,CF] | [B,,B,]3 A,,2 B,, | C,3 C,2 C, | F,6 | B,,3 F, F,[F,A,] | %18
 [B,,B,]3 [B,,B,]2 [B,,B,] | [E,B,]3 [C,C]2 [=E,C] | [F,C]4- [F,C][F,A,] | %21
 [B,,B,]3 [B,,B,]2 [B,,B,] | [E,B,]3 [B,,B,]2 [E,G,E] | [F,D]3 [F,A,E]2 [F,CE] | [B,,B,]6 |] %25
V:3
 x6 | x6 | x6 | x6 | x6 | x6 | x6 |[M:5/8] x5 |[M:1/8] x |[M:3/4] z2 z A, z2 | x6 | x6 | x6 | %13
 z2 z A, z2 | x6 | x6 | x6 | x6 | x6 | x6 | x6 | x6 | x6 | x6 | x6 |] %25

